X: 1
T: Minor Syl
C: Sylvia Miskoe
R: reel
Z: 1998 by John Chambers <jc:trillian.mit.edu>
N: See also "Major Bill"
M: 2/4
L: 1/8
K: Em
|: F \
| "Em"E^DEF G2E2 | "B7"^D2B2 B3A | "Em"GFEG "B7"FE^DF | "Em"E^DEG "(E7)"B2B2 | "Am"cBAB cedc |
| "Em"BAGA B2G2 | "B7"AGFA GFE^D | "Em"E2G2 E3 :: B | "Am"c2AE CEAc | "Em"B2GE B,EGB |
| "B7"A2F^D B,DFD | "Em"E^DEF "(E7)"G2B2 | "Am"c2cd e2c2 | "Em"B2Bc BAG2 | "Am"ABcA "B7"FB,^C^D | "Em"E2G2 E3 :|
